<?xml version="1.0" encoding="UTF-8"?>
<map version="1.10" tiledversion="1.11.2" orientation="orthogonal" renderorder="right-down" compressionlevel="0" width="4" height="5" tilewidth="16" tileheight="16" infinite="0" nextlayerid="19" nextobjectid="42">
 <properties>
  <property name="AllowGrassSurviveInWinter" value="F"/>
  <property name="BrookSounds" value="54 99 5 64 101 4"/>
  <property name="Fall_Objects" value="F"/>
  <property name="Outdoors" value="T"/>
  <property name="Spring_Objects" value="F"/>
  <property name="Summer_Objects" value="F"/>
  <property name="Warp" value="120 25 Town 0 90 120 26 Town 0 90 120 24 Town 0 90 120 27 Town 0 90 67 -1 Farm 41 64 68 -1 Farm 41 64 69 -1 Farm 41 64 -1 6 Woods 59 15 -1 7 Woods 59 15 70 -1 Farm 41 64 71 -1 Farm 41 64 72 -1 Farm 41 64"/>
  <property name="Winter_Objects" value="F"/>
 </properties>
 <tileset firstgid="1" name="zSpring_SushiStall_Open" tilewidth="16" tileheight="16" tilecount="20" columns="4">
  <image source="spring_SushiStall.png" width="64" height="80"/>
 </tileset>
 <layer id="1" name="Back" width="4" height="5">
  <data encoding="csv">
0,0,0,0,
0,0,0,0,
0,0,0,0,
0,0,0,0,
0,0,0,0
</data>
 </layer>
 <layer id="2" name="Back2" width="4" height="5">
  <properties>
   <property name="Draw" value="Back"/>
  </properties>
  <data encoding="csv">
0,0,0,0,
0,0,0,0,
0,0,0,0,
0,0,0,0,
0,0,0,0
</data>
 </layer>
 <layer id="3" name="Back3" width="4" height="5">
  <properties>
   <property name="Draw" value="Back"/>
  </properties>
  <data encoding="csv">
0,0,0,0,
0,0,0,0,
0,0,0,0,
0,0,0,0,
0,0,0,0
</data>
 </layer>
 <layer id="4" name="Buildings" width="4" height="5">
  <data encoding="csv">
0,0,0,0,
0,0,0,0,
0,0,0,0,
13,14,15,16,
17,18,19,20
</data>
 </layer>
 <layer id="5" name="Buildings2" width="4" height="5">
  <properties>
   <property name="Draw" value="Buildings"/>
  </properties>
  <data encoding="csv">
0,0,0,0,
0,0,0,0,
0,0,0,0,
0,0,0,0,
0,0,0,0
</data>
 </layer>
 <layer id="6" name="Paths" width="4" height="5">
  <data encoding="csv">
0,0,0,0,
0,0,0,0,
0,0,0,0,
0,0,0,0,
0,0,0,0
</data>
 </layer>
 <layer id="7" name="Front" width="4" height="5">
  <data encoding="csv">
0,0,0,0,
5,6,7,8,
9,10,11,12,
0,0,0,0,
0,0,0,0
</data>
 </layer>
 <layer id="8" name="AlwaysFront" width="4" height="5">
  <data encoding="csv">
1,2,3,4,
0,0,0,0,
0,0,0,0,
0,0,0,0,
0,0,0,0
</data>
 </layer>
 <layer id="9" name="AlwaysFront2" width="4" height="5">
  <properties>
   <property name="Draw" value="AlwaysFront"/>
  </properties>
  <data encoding="csv">
0,0,0,0,
0,0,0,0,
0,0,0,0,
0,0,0,0,
0,0,0,0
</data>
 </layer>
 <objectgroup id="10" name="Back"/>
 <objectgroup id="11" name="Back2"/>
 <objectgroup id="12" name="Back3"/>
 <objectgroup id="13" name="Buildings">
  <object id="41" name="TileData" x="16" y="64" width="32" height="16">
   <properties>
    <property name="Action" value="OpenShop BeazNees.CP.TheSushiProject down 600 2600 49 73 1 1"/>
   </properties>
  </object>
 </objectgroup>
 <objectgroup id="14" name="Buildings2"/>
 <objectgroup id="15" name="Paths"/>
 <objectgroup id="16" name="Front"/>
 <objectgroup id="17" name="AlwaysFront"/>
 <objectgroup id="18" name="AlwaysFront2"/>
</map>
